packages/kaspersky-hexa-ui-icons/src/iconsSVGs/16/IOS2.svg

<svg width="16" height="16" viewBox="0 0 16 16" fill="none" xmlns="http://www.w3.org/2000/svg">
<path fill-rule="evenodd" clip-rule="evenodd" d="M14.7629 8.60421C14.6044 8.32234 14.4062 8.08533 14.1677 7.89318C13.9291 7.70028 13.6697 7.53729 13.3908 7.40197C13.1112 7.26664 12.8525 7.1343 12.614 7.0057C12.3754 6.87711 12.1765 6.73953 12.018 6.58851C11.8609 6.43748 11.7809 6.24981 11.7809 6.02402C11.7809 5.78252 11.8667 5.59037 12.0389 5.44682C12.2104 5.30477 12.4576 5.23224 12.7804 5.23224C13.1235 5.23224 13.4427 5.27561 13.7389 5.36234C14.0343 5.44906 14.257 5.54551 14.4048 5.65093L14.8379 4.35149C14.6029 4.20046 14.3031 4.08607 13.9399 4.00757C13.5767 3.92757 13.1905 3.88794 12.7804 3.88794C12.4237 3.88794 12.1009 3.93355 11.8112 4.02401C11.5222 4.11448 11.2721 4.2543 11.0596 4.44271C10.8477 4.63037 10.6855 4.86514 10.571 5.1485C10.4564 5.43037 10.3987 5.76308 10.3987 6.14738C10.3987 6.59224 10.4787 6.95785 10.6358 7.24421C10.7944 7.52982 10.9933 7.76907 11.2318 7.96122C11.4703 8.15262 11.729 8.31487 12.0086 8.4472C12.2875 8.57879 12.547 8.70589 12.7855 8.83075C13.024 8.95561 13.2222 9.09169 13.3807 9.24272C13.5385 9.39375 13.6178 9.58889 13.6178 9.83038C13.6178 10.1466 13.5083 10.3822 13.2899 10.5369C13.0709 10.6909 12.7567 10.7687 12.3459 10.7687C12.1715 10.7687 12.0014 10.753 11.8364 10.7223C11.6721 10.6924 11.5157 10.6551 11.368 10.6102C11.2195 10.5646 11.0869 10.5167 10.9688 10.4629C10.8513 10.4106 10.7554 10.362 10.6819 10.3156L10.238 11.6382C10.4196 11.7437 10.7021 11.8483 11.0848 11.9538C11.4689 12.0599 11.9128 12.1123 12.4172 12.1123C12.7999 12.1123 13.1523 12.0629 13.4715 11.965C13.7908 11.867 14.0632 11.7167 14.2887 11.5141C14.5136 11.31 14.688 11.0558 14.8126 10.7508C14.9373 10.4465 15 10.0831 15 9.66066C15 9.23973 14.9207 8.88758 14.7629 8.60421ZM8.06792 8.0001C8.06792 7.61655 8.03837 7.25841 7.98216 6.9272C7.92451 6.59524 7.83515 6.30589 7.71409 6.05766C7.59374 5.80869 7.43664 5.6143 7.24135 5.47523C7.04678 5.33691 6.80897 5.26663 6.52648 5.26663C6.03644 5.26663 5.65739 5.4872 5.38931 5.92757C5.11979 6.36794 4.98503 7.05954 4.98503 8.0001C4.98503 8.39935 5.01602 8.7672 5.07584 9.10141C5.13637 9.43711 5.22861 9.72496 5.35256 9.96571C5.47723 10.2072 5.63721 10.3956 5.83106 10.5309C6.02636 10.667 6.25768 10.7343 6.52648 10.7343C7.01651 10.7343 7.39557 10.5197 7.66508 10.0906C7.93316 9.66066 8.06792 8.96384 8.06792 8.0001ZM9.33552 6.31636C9.45659 6.82178 9.51712 7.38253 9.51712 8.0001C9.51712 9.31823 9.25697 10.3336 8.73667 11.0453C8.21709 11.7564 7.47988 12.1123 6.52648 12.1123C6.01627 12.1123 5.57307 12.0143 5.1969 11.8192C4.82145 11.6233 4.51085 11.3444 4.26584 10.9825C4.0201 10.6207 3.8385 10.1878 3.71743 9.68309C3.59637 9.17917 3.53583 8.61842 3.53583 8.0001C3.53583 6.68271 3.79454 5.66738 4.31124 4.95561C4.82793 4.24458 5.56659 3.88794 6.52648 3.88794C7.02948 3.88794 7.46979 3.98588 7.84596 4.18177C8.22214 4.37766 8.53345 4.65654 8.78279 5.01841C9.03069 5.37953 9.21517 5.81318 9.33552 6.31636ZM1.70334 3.88794C1.48355 3.88794 1.31132 3.95897 1.18665 4.10252C1.06198 4.24532 1 4.41878 1 4.62065C1 4.82327 1.06198 4.99224 1.18665 5.12832C1.31132 5.26364 1.48355 5.33168 1.70334 5.33168C1.92314 5.33168 2.10042 5.26364 2.23734 5.12832C2.37282 4.99224 2.44128 4.82327 2.44128 4.62065C2.44128 4.41878 2.37282 4.24532 2.23734 4.10252C2.10042 3.95897 1.92314 3.88794 1.70334 3.88794ZM1.01907 12.1123H2.46035V6.05766H1.01907V12.1123Z" fill="black"/>
</svg>

<svg xmlns="http://www.w3.org/2000/svg" width="16" height="16" fill="none" viewBox="0 0 16 16"><path fill="#000" fill-rule="evenodd" d="M14.7629 8.6042q-.2376-.4229-.5952-.711a4.02 4.02 0 0 0-.7769-.4912 20 20 0 0 1-.7768-.3963c-.2386-.1286-.4375-.2662-.596-.4172-.1571-.151-.2371-.3387-.2371-.5645 0-.2415.0858-.4336.258-.5772.1715-.142.4187-.2146.7415-.2146.3431 0 .6623.0434.9585.1301.2954.0868.5181.1832.6659.2886l.4331-1.2994c-.235-.151-.5348-.2654-.898-.344-.3632-.08-.7494-.1196-1.1595-.1196q-.5348.0002-.9692.1361c-.289.0905-.5391.2303-.7516.4187-.2119.1877-.3741.4224-.4886.7058-.1146.2819-.1723.6146-.1723.9989 0 .4448.08.8104.2371 1.0968.1586.2856.3575.5249.596.717.2385.1914.4972.3537.7768.486.2789.1316.5384.2587.7769.3835.2385.125.4367.261.5952.412.1578.151.2371.3462.2371.5877q-.0002.4744-.3279.7065c-.219.154-.5332.2318-.944.2318a2.8 2.8 0 0 1-.5095-.0464 4.2 4.2 0 0 1-.4684-.1121c-.1485-.0456-.2811-.0935-.3992-.1473-.1175-.0523-.2134-.1009-.2869-.1473l-.4439 1.3226c.1816.1055.4641.2101.8468.3156.3841.1061.828.1585 1.3324.1585.3827 0 .7351-.0494 1.0543-.1473q.479-.147.8172-.4509.3372-.306.5239-.7633.1872-.4565.1874-1.0901-.0002-.6314-.2371-1.0565m-6.695-.6041c0-.3835-.0295-.7417-.0857-1.0729-.0577-.332-.147-.6213-.2681-.8695-.1204-.249-.2775-.4434-.4728-.5825-.1945-.1383-.4323-.2086-.7148-.2086q-.735.0002-1.1372.661C5.1198 6.3679 4.985 7.0596 4.985 8c0 .3993.031.7671.0908 1.1013q.0909.5034.2768.8643c.1246.2415.2846.4299.4785.5652.1953.1361.4266.2034.6954.2034.49 0 .869-.2146 1.1386-.6437.268-.43.4028-1.1268.4028-2.0905m1.2676-1.6837c.121.5054.1816 1.0661.1816 1.6837 0 1.3181-.2601 2.3335-.7804 3.0452-.5196.7111-1.2568 1.067-2.2102 1.067-.5102 0-.9534-.098-1.3296-.2931q-.5634-.2939-.931-.8367c-.2458-.3618-.4274-.7947-.5485-1.2994-.121-.504-.1816-1.0647-.1816-1.683 0-1.3174.2587-2.3327.7754-3.0445.5167-.711 1.2554-1.0677 2.2153-1.0677.503 0 .9433.098 1.3195.2939s.6875.4747.9368.8366c.2479.3611.4324.7948.5527 1.298M1.7033 3.8879c-.2198 0-.392.071-.5167.2146C1.062 4.2453 1 4.4188 1 4.6207c0 .2026.062.3715.1866.5076.1247.1353.297.2034.5167.2034s.3971-.068.534-.2034c.1355-.136.204-.305.204-.5076 0-.202-.0685-.3754-.204-.5182-.1369-.1435-.3142-.2146-.534-.2146m-.6842 8.2244h1.4413V6.0577H1.019z" clip-rule="evenodd"/></svg>
